!!!OTL: 560a. Augentrost.
!!!ODT: 1880
!!!ARE: Europa, Mitteleuropa, Deutschland, Hessen, Odenwald
!!!SCT: E0560A
!!!TXL: @@DE
!!!YEM: Copyright 1995, estate of Helmut Schaffrath.
**kern	**text
*ICvox	*
*M3/4	*
*k[f#]	*
*G:	*
!LO:TX:a:t=Langsam.	!
!LO:TX:a:t=Aus dem Odenwald. 1880.	!
{8d	Ach
8g	ſchön-
8a	-ſter
=1	=1
4b/	Schatʒ,
4b/	mein
8a	Au-
8a	-gen-
=2	=2
4g	-troſt,
8r}	.
{8a	kann
8b	dei-
8cc	-ner
=3	=3
8ddL	nicht
8ee	.
8ddJ	.
8b	ver-
8ccL	-geſ-
8ddJ	.
=4	=4
4b	-ſen!
8r}	.
{8dd	Du
8b	haſt
8cc	mir
=5	=5
(4dd	ja
8ee)	.
8dd	die
8cc	Treu
8b	ver-
=6	=6
4cc	-ſagt,
8r}	.
{8dd	haſt
8b/	mir
8a	mein
=7	=7
8bL	Herʒ
8dd	.
8ccJ	.
8b	ſo
8a	ſchwer
8g	ge-
=8	=8
4a	-macht,
8r}	.
{8a	kann
8b	dei-
8cc	-ner
=9	=9
(8ddL	nicht
8ee	.
8ddJ)	.
8b	ver-
8ccL	-geſ-
8ddJ	.
=10	=10
4b	-ſen.
8r}	.
==	==
!!!AGN: Liebes - Lied
!!!ONB: ESAC (Essen Associative Code) Database: ERK1
!!!AMT: simple triple
!!!AIN: vox
!!!EED: Helmut Schaffrath
!!!EEV: 1.0
!!!GTL: Liebeslieder [Neuere (aus dem 18. bis 19. Jahrh.) - Liebeslust]
!!!URL-scan: https://rosdok.uni-rostock.de/mcrviewer/recordIdentifier/rosdok_ppn745177662/iview2/phys_0390.iview2?x=-128.77276441889308&y=1192.4849256051239&scale=0.5870222003877485&rotation=0&layout=singlePageLayout
!!!ENC: Anna Maria Matuszewska
!!!EEV: 2024/10/12
*-	*-
